hackathon/svg-icons/src/components/icons/source/alien-gun.svg

<svg fill="none" height="256" viewBox="0 0 256 256" width="256" xmlns="http://www.w3.org/2000/svg"><g fill="#000"><path d="m234.485 122.641c3.936 0 7.572-2.1 9.541-5.508 1.967-3.408 1.967-7.608 0-11.016-1.969-3.408-5.605-5.508-9.541-5.508h-18.359v-7.3433c0-.9737-.387-1.9081-1.075-2.5965-.689-.6885-1.623-1.0754-2.597-1.0754-7.185.0082-13.912 3.5195-18.028 9.4076-3.92-6.9208-10.819-11.6417-18.691-12.7861v-3.2309c0-1.6557-1.106-3.1064-2.703-3.544-2.76-.7508-5.532-1.4606-8.312-2.1261v-11.5876c0-3.2801-1.75-6.3094-4.591-7.9502-2.84-1.6392-6.338-1.6392-9.179 0-2.841 1.6409-4.59 4.6702-4.59 7.9502v7.8683c-29.174-4.862-58.9518-4.862-88.1253 0v-7.8683c0-3.2801-1.7491-6.3094-4.5901-7.9502-2.8408-1.6392-6.3387-1.6392-9.1797 0-2.8408 1.6409-4.59 4.6702-4.59 7.9502v11.5876c-2.7785.6688-5.549 1.3769-8.3128 2.1261-.8769.2409-1.6326.7966-2.1228 1.5605-1.7408 2.7375-3.2424 5.6195-4.4864 8.614-3.8505.0623-7.5242 1.6343-10.2271 4.3769-2.7031 2.7425-4.2212 6.4392-4.2258 10.2892v14.688c.0049 3.851 1.5228 7.547 4.2258 10.29 2.7031 2.742 6.3765 4.314 10.2271 4.377 1.2442 2.994 2.7458 5.876 4.4864 8.614.4902.763 1.2459 1.319 2.1228 1.56 2.7605.751 5.5326 1.461 8.3128 2.126v14.321c.0081 7.212 1.6867 14.327 4.906 20.781 2.6228 5.233 3.5293 11.157 2.5916 16.935-.9376 5.777-3.6718 11.111-7.8141 15.245-2.1556 2.149-3.3686 5.067-3.372 8.109-.0016 3.044 1.2065 5.964 3.3605 8.116 2.1523 2.151 5.0718 3.359 8.1159 3.354h63.2782c1.603-.002 3.139-.638 4.272-1.772 1.134-1.133 1.77-2.669 1.772-4.272.003-3.288-1.03-6.493-2.953-9.16-1.921-2.667-4.635-4.66-7.755-5.696-.937-.315-1.724-.971-2.203-1.836-6.0975-11.041-9.3367-23.431-9.4219-36.044 17.3579-.137 33.5469-8.769 43.3369-23.103 11.827-1.589 23.534-3.964 35.043-7.113 1.595-.436 2.7-1.883 2.703-3.536v-3.231c7.872-1.144 14.771-5.865 18.691-12.786 4.116 5.888 10.843 9.4 18.028 9.408.974 0 1.908-.387 2.597-1.075.688-.689 1.075-1.623 1.075-2.597v-7.344zm0-14.688c2.028 0 3.672 1.644 3.672 3.672s-1.644 3.672-3.672 3.672h-18.359v-7.344zm-66.093 11.016h-25.704c-2.624 0-5.048-1.4-6.36-3.672-1.311-2.272-1.311-5.072 0-7.344 1.312-2.272 3.736-3.672 6.36-3.672h25.704zm-14.688-53.2445c0-1.0147.821-1.8359 1.836-1.8359s1.836.8212 1.836 1.8359v9.9582c-1.225-.2574-2.447-.5016-3.672-.7344zm-106.4844 0c0-1.0147.8213-1.8359 1.836-1.8359 1.0146 0 1.8359.8212 1.8359 1.8359v9.2158c-1.2245.2443-2.4474.4902-3.6719.7344zm-29.375 53.2445v-14.688c.0016-1.436.4245-2.84 1.2147-4.04.7917-1.1987 1.9178-2.1396 3.2391-2.7051-2.3572 9.2451-2.3572 18.9331 0 28.1781-1.3212-.565-2.4474-1.506-3.2391-2.705-.7902-1.2-1.2131-2.604-1.2147-4.04zm25.7031 102.368c.0033-1.092.4361-2.138 1.2049-2.912 3.7833-3.785 6.6534-8.383 8.3928-13.443l16.1055 8.052v12.419h-21.5868c-2.272-.002-4.1145-1.844-4.1162-4.116zm60.4073-2.494c1.449.484 2.736 1.356 3.721 2.521.987 1.166 1.633 2.581 1.869 4.089h-32.9486v-14.688c.0082-1.398-.7802-2.68-2.0309-3.304l-19.748-9.873h.0016c.8032-6.807-.4016-13.7-3.467-19.829-2.7096-5.432-4.1243-11.418-4.1308-17.489v-12.705c14.0303 2.941 28.2734 4.752 42.5937 5.416-.2311.9-.4655 1.8-.6606 2.706h-30.9176c-1.272 0-2.4556.657-3.1244 1.741-.6704 1.082-.7311 2.434-.1623 3.572l7.3438 14.687c.6229 1.246 1.8949 2.031 3.2866 2.031h21.7921c.6508 12.593 4.1686 24.873 10.2813 35.9 1.372 2.47 3.6211 4.334 6.3011 5.225zm-36.1053-48.468-3.6719-7.344h23.7195c-.3049 2.442-.4918 4.891-.5803 7.344zm27.1064-3.72c.4131-4.542 1.2376-9.039 2.4638-13.432 1.631.03 3.2571.085 4.8871.085 8.445 0 16.89-.422 25.336-1.219-8.455 9.106-20.261 14.366-32.6868 14.566zm73.4379-29.209c-43.777 11.47-89.7872 11.35-133.5014-.346-4.611-7.698-7.0471-16.502-7.0471-25.475 0-8.974 2.4359-17.7776 7.0471-25.4756 43.7184-11.6958 89.7244-11.8154 133.5014-.3458v11.1335h-25.703c-5.248 0-10.097 2.7998-12.721 7.3439-2.622 4.544-2.622 10.143 0 14.687 2.625 4.544 7.474 7.344 12.721 7.344h25.703zm7.343-7.829v-35.9844c5.577 1.1327 10.314 4.7865 12.824 9.8944 2.51 5.106 2.51 11.089 0 16.196-2.509 5.108-7.247 8.761-12.824 9.894zm33.047-3.767c-4.234-1.093-7.76-4.016-9.62-7.973-1.861-3.959-1.861-8.539 0-12.496 1.86-3.957 5.386-6.88 9.62-7.9731z"/><path d="m58.2352 85.9219c-6.8175 0-13.3547 2.708-18.1743 7.5288-4.8208 4.8192-7.5288 11.3563-7.5288 18.1743s2.708 13.355 7.5288 18.174c4.8192 4.821 11.3564 7.529 18.1743 7.529 6.818 0 13.3548-2.708 18.1744-7.529 4.8208-4.819 7.5288-11.356 7.5288-18.174-.0082-6.814-2.7195-13.3467-7.5372-18.1659-4.8192-4.8175-11.3518-7.5288-18.166-7.5372zm0 44.0621c-4.8687 0-9.5384-1.934-12.9829-5.376-3.4423-3.444-5.3764-8.114-5.3764-12.983s1.9343-9.538 5.3764-12.9829c3.444-3.4424 8.1142-5.3765 12.9829-5.3765s9.5385 1.9343 12.983 5.3765c3.4423 3.4439 5.3764 8.1139 5.3764 12.9829-.0065 4.867-1.9425 9.534-5.3831 12.976-3.4424 3.441-8.1092 5.377-12.9763 5.383z"/><path d="m58.2353 96.9375c-3.8948 0-7.6308 1.5474-10.3862 4.3015-2.7539 2.755-4.3014 6.491-4.3014 10.386s1.5475 7.631 4.3014 10.386c2.7555 2.754 6.4914 4.302 10.3862 4.302 3.8947 0 7.6307-1.548 10.3861-4.302 2.7539-2.755 4.3014-6.491 4.3014-10.386s-1.5475-7.631-4.3014-10.386c-2.7555-2.7541-6.4914-4.3015-10.3861-4.3015zm0 22.0315c-1.9474 0-3.8162-.774-5.1931-2.151-1.377-1.377-2.1507-3.246-2.1507-5.193s.7737-3.816 2.1507-5.193c1.3769-1.377 3.2457-2.151 5.1931-2.151 1.9473 0 3.8161.774 5.193 2.151 1.377 1.377 2.1507 3.246 2.1507 5.193s-.7737 3.816-2.1507 5.193c-1.3769 1.377-3.2457 2.151-5.193 2.151z"/><path d="m105.97 93.2656c-4.869 0-9.5388 1.9343-12.9833 5.3765-3.4423 3.4439-5.3764 8.1139-5.3764 12.9829s1.9343 9.538 5.3764 12.983c3.4441 3.442 8.1143 5.376 12.9833 5.376 4.868 0 9.538-1.934 12.983-5.376 3.442-3.444 5.376-8.114 5.376-12.983-.007-4.867-1.942-9.534-5.383-12.9762-3.443-3.4407-8.109-5.3765-12.976-5.3832zm0 29.3754c-2.921 0-5.725-1.161-7.7898-3.226-2.065-2.066-3.226-4.869-3.226-7.79 0-2.92 1.1606-5.724 3.226-7.789 2.0658-2.065 4.8688-3.226 7.7898-3.226 2.92 0 5.724 1.16 7.789 3.226 2.065 2.065 3.226 4.869 3.226 7.789 0 2.921-1.16 5.725-3.226 7.79-2.065 2.065-4.869 3.226-7.789 3.226z"/><path d="m216.126 74.9063h7.344v-7.3438h7.343v-7.3437h-7.343v-7.3438h-7.344v7.3438h-7.344v7.3437h7.344z"/><path d="m238.157 141h-7.344v7.344h-7.343v7.344h7.343v7.343h7.344v-7.343h7.344v-7.344h-7.344z"/><path d="m48.5834 48.9426c4.3916-1.7556 8.834-3.2883 13.3254-4.598v8.5305h7.3438v-10.4534c3.6718-.8622 7.3437-1.5671 11.0156-2.1408v8.9225h7.3437v-9.878c3.6719-.3672 7.3438-.5951 11.0157-.6901v10.5683h7.3434v-10.5683c3.672.095 7.344.3114 11.016.6901v9.878h7.344v-8.9225c3.69.5721 7.362 1.2786 11.015 2.1408v10.4534h7.344v-8.5305c4.487 1.3113 8.929 2.844 13.325 4.5963l2.725-6.8226v.0017c-5.247-2.0868-10.605-3.8817-16.05-5.3752v-9.5729h-7.344v7.7323c-3.653-.8196-7.325-1.5277-11.015-2.0703v-9.3337h-7.344v8.4453c-3.672-.3672-7.344-.5475-11.016-.6393v-7.8062h-7.3433v7.7882c-3.6719.0918-7.3438.2819-11.0157.6392v-8.4272h-7.3437v9.3337c-3.6719.5442-7.3438 1.2524-11.0157 2.0703v-7.7323h-7.3437v9.5729c-5.4457 1.4933-10.8025 3.2883-16.0497 5.3752z"/></g></svg>

<svg xmlns="http://www.w3.org/2000/svg" width="256" height="256" fill="none" viewBox="0 0 256 256"><path fill="#000" d="M234.485 122.641C238.421 122.641 242.057 120.541 244.026 117.133C245.993 113.725 245.993 109.525 244.026 106.117C242.057 102.709 238.421 100.609 234.485 100.609H216.126V93.2657C216.126 92.292 215.739 91.3576 215.051 90.6692C214.362 89.9807 213.428 89.5938 212.454 89.5938C205.269 89.602 198.542 93.1133 194.426 99.0014C190.506 92.0806 183.607 87.3597 175.735 86.2153V82.9844C175.735 81.3287 174.629 79.878 173.032 79.4404C170.272 78.6896 167.5 77.9798 164.72 77.3143V65.7267C164.72 62.4466 162.97 59.4173 160.129 57.7765C157.289 56.1373 153.791 56.1373 150.95 57.7765C148.109 59.4174 146.36 62.4467 146.36 65.7267V73.595C117.186 68.733 87.4082 68.733 58.2347 73.595V65.7267C58.2347 62.4466 56.4856 59.4173 53.6446 57.7765C50.8038 56.1373 47.3059 56.1373 44.4649 57.7765C41.6241 59.4174 39.8749 62.4467 39.8749 65.7267V77.3143C37.0964 77.9831 34.3259 78.6912 31.5621 79.4404C30.6852 79.6813 29.9295 80.237 29.4393 81.0009C27.6985 83.7384 26.1969 86.6204 24.9529 89.6149C21.1024 89.6772 17.4287 91.2492 14.7258 93.9918C12.0227 96.7343 10.5046 100.431 10.5 104.281V118.969C10.5049 122.82 12.0228 126.516 14.7258 129.259C17.4289 132.001 21.1023 133.573 24.9529 133.636C26.1971 136.63 27.6987 139.512 29.4393 142.25C29.9295 143.013 30.6852 143.569 31.5621 143.81C34.3226 144.561 37.0947 145.271 39.8749 145.936V160.257C39.883 167.469 41.5616 174.584 44.7809 181.038C47.4037 186.271 48.3102 192.195 47.3725 197.973C46.4349 203.75 43.7007 209.084 39.5584 213.218C37.4028 215.367 36.1898 218.285 36.1864 221.327C36.1848 224.371 37.3929 227.291 39.5469 229.443C41.6992 231.594 44.6187 232.802 47.6628 232.797H110.941C112.544 232.795 114.08 232.159 115.213 231.025C116.347 229.892 116.983 228.356 116.985 226.753C116.988 223.465 115.955 220.26 114.032 217.593C112.111 214.926 109.397 212.933 106.277 211.897C105.34 211.582 104.553 210.926 104.074 210.061C97.9765 199.02 94.7373 186.63 94.6521 174.017C112.01 173.88 128.199 165.248 137.989 150.914C149.816 149.325 161.523 146.95 173.032 143.801C174.627 143.365 175.732 141.918 175.735 140.265V137.034C183.607 135.89 190.506 131.169 194.426 124.248C198.542 130.136 205.269 133.648 212.454 133.656C213.428 133.656 214.362 133.269 215.051 132.581C215.739 131.892 216.126 130.958 216.126 129.984V122.64L234.485 122.641ZM234.485 107.953C236.513 107.953 238.157 109.597 238.157 111.625C238.157 113.653 236.513 115.297 234.485 115.297H216.126V107.953H234.485ZM168.392 118.969H142.688C140.064 118.969 137.64 117.569 136.328 115.297C135.017 113.025 135.017 110.225 136.328 107.953C137.64 105.681 140.064 104.281 142.688 104.281H168.392V118.969ZM153.704 65.7245C153.704 64.7098 154.525 63.8886 155.54 63.8886C156.555 63.8886 157.376 64.7098 157.376 65.7245V75.6827C156.151 75.4253 154.929 75.1811 153.704 74.9483V65.7245ZM47.2196 65.7245C47.2196 64.7098 48.0409 63.8886 49.0556 63.8886C50.0702 63.8886 50.8915 64.7098 50.8915 65.7245V74.9403C49.667 75.1846 48.4441 75.4305 47.2196 75.6747V65.7245ZM17.8446 118.969V104.281C17.8462 102.845 18.2691 101.441 19.0593 100.241C19.851 99.0423 20.9771 98.1014 22.2984 97.5359C19.9412 106.781 19.9412 116.469 22.2984 125.714C20.9772 125.149 19.851 124.208 19.0593 123.009C18.2691 121.809 17.8462 120.405 17.8446 118.969V118.969ZM43.5477 221.337C43.551 220.245 43.9838 219.199 44.7526 218.425C48.5359 214.64 51.406 210.042 53.1454 204.982L69.2509 213.034V225.453H47.6641C45.3921 225.451 43.5496 223.609 43.5479 221.337L43.5477 221.337ZM103.955 218.843C105.404 219.327 106.691 220.199 107.676 221.364C108.663 222.53 109.309 223.945 109.545 225.453H76.5964V210.765C76.6046 209.367 75.8162 208.085 74.5655 207.461L54.8175 197.588H54.8191C55.6223 190.781 54.4175 183.888 51.3521 177.759C48.6425 172.327 47.2278 166.341 47.2213 160.27V147.565C61.2516 150.506 75.4947 152.317 89.815 152.981C89.5839 153.881 89.3495 154.781 89.1544 155.687H58.2368C56.9648 155.687 55.7812 156.344 55.1124 157.428C54.442 158.51 54.3813 159.862 54.9501 161L62.2939 175.687C62.9168 176.933 64.1888 177.718 65.5805 177.718H87.3726C88.0234 190.311 91.5412 202.591 97.6539 213.618C99.0259 216.088 101.275 217.952 103.955 218.843L103.955 218.843ZM67.8497 170.375L64.1778 163.031H87.8973C87.5924 165.473 87.4055 167.922 87.317 170.375H67.8497ZM94.9561 166.655C95.3692 162.113 96.1937 157.616 97.4199 153.223C99.0509 153.253 100.677 153.308 102.307 153.308C110.752 153.308 119.197 152.886 127.643 152.089C119.188 161.195 107.382 166.455 94.9562 166.655L94.9561 166.655ZM168.394 137.446C124.617 148.916 78.6068 148.796 34.8926 137.1C30.2816 129.402 27.8455 120.598 27.8455 111.625C27.8455 102.651 30.2814 93.8474 34.8926 86.1494C78.611 74.4536 124.617 74.334 168.394 85.8036V96.9371H142.691C137.443 96.9371 132.594 99.7369 129.97 104.281C127.348 108.825 127.348 114.424 129.97 118.968C132.595 123.512 137.444 126.312 142.691 126.312H168.394V137.446ZM175.737 129.617V93.6326C181.314 94.7653 186.051 98.4191 188.561 103.527C191.071 108.633 191.071 114.616 188.561 119.723C186.052 124.831 181.314 128.484 175.737 129.617ZM208.784 125.85C204.55 124.757 201.024 121.834 199.164 117.877C197.303 113.918 197.303 109.338 199.164 105.381C201.024 101.424 204.55 98.501 208.784 97.4079V125.85Z"/><path fill="#000" d="M58.2352 85.9219C51.4177 85.9219 44.8805 88.6299 40.0609 93.4507C35.2401 98.2699 32.5321 104.807 32.5321 111.625C32.5321 118.443 35.2401 124.98 40.0609 129.799C44.8801 134.62 51.4173 137.328 58.2352 137.328C65.0532 137.328 71.59 134.62 76.4096 129.799C81.2304 124.98 83.9384 118.443 83.9384 111.625C83.9302 104.811 81.2189 98.2783 76.4012 93.4591C71.582 88.6416 65.0494 85.9303 58.2352 85.9219V85.9219ZM58.2352 129.984C53.3665 129.984 48.6968 128.05 45.2523 124.608C41.81 121.164 39.8759 116.494 39.8759 111.625C39.8759 106.756 41.8102 102.087 45.2523 98.6421C48.6963 95.1997 53.3665 93.2656 58.2352 93.2656C63.1039 93.2656 67.7737 95.1999 71.2182 98.6421C74.6605 102.086 76.5946 106.756 76.5946 111.625C76.5881 116.492 74.6521 121.159 71.2115 124.601C67.7691 128.042 63.1023 129.978 58.2352 129.984Z"/><path fill="#000" d="M58.2353 96.9375C54.3405 96.9375 50.6045 98.4849 47.8491 101.239C45.0952 103.994 43.5477 107.73 43.5477 111.625C43.5477 115.52 45.0952 119.256 47.8491 122.011C50.6046 124.765 54.3405 126.313 58.2353 126.313C62.13 126.313 65.866 124.765 68.6214 122.011C71.3753 119.256 72.9228 115.52 72.9228 111.625C72.9228 107.73 71.3753 103.994 68.6214 101.239C65.8659 98.4849 62.13 96.9375 58.2353 96.9375ZM58.2353 118.969C56.2879 118.969 54.4191 118.195 53.0422 116.818C51.6652 115.441 50.8915 113.572 50.8915 111.625C50.8915 109.678 51.6652 107.809 53.0422 106.432C54.4191 105.055 56.2879 104.281 58.2353 104.281C60.1826 104.281 62.0514 105.055 63.4283 106.432C64.8053 107.809 65.579 109.678 65.579 111.625C65.579 113.572 64.8053 115.441 63.4283 116.818C62.0514 118.195 60.1826 118.969 58.2353 118.969Z"/><path fill="#000" d="M105.97 93.2656C101.101 93.2656 96.4312 95.1999 92.9867 98.6421C89.5444 102.086 87.6103 106.756 87.6103 111.625C87.6103 116.494 89.5446 121.163 92.9867 124.608C96.4308 128.05 101.101 129.984 105.97 129.984C110.838 129.984 115.508 128.05 118.953 124.608C122.395 121.164 124.329 116.494 124.329 111.625C124.322 106.758 122.387 102.091 118.946 98.6488C115.503 95.2081 110.837 93.2723 105.97 93.2656ZM105.97 122.641C103.049 122.641 100.245 121.48 98.1802 119.415C96.1152 117.349 94.9542 114.546 94.9542 111.625C94.9542 108.705 96.1148 105.901 98.1802 103.836C100.246 101.771 103.049 100.61 105.97 100.61C108.89 100.61 111.694 101.77 113.759 103.836C115.824 105.901 116.985 108.705 116.985 111.625C116.985 114.546 115.825 117.35 113.759 119.415C111.694 121.48 108.89 122.641 105.97 122.641Z"/><path fill="#000" d="M216.126 74.9063H223.47V67.5625H230.813V60.2188H223.47V52.875H216.126V60.2188H208.782V67.5625H216.126V74.9063Z"/><path fill="#000" d="M238.157 141H230.813V148.344H223.47V155.688H230.813V163.031H238.157V155.688H245.501V148.344H238.157V141Z"/><path fill="#000" d="M48.5834 48.9426C52.975 47.187 57.4174 45.6543 61.9088 44.3446V52.8751H69.2526V42.4217C72.9244 41.5595 76.5963 40.8546 80.2682 40.2809V49.2034H87.6119V39.3254C91.2838 38.9582 94.9557 38.7303 98.6276 38.6353V49.2036H105.971V38.6353C109.643 38.7303 113.315 38.9467 116.987 39.3254V49.2034H124.331V40.2809C128.021 40.853 131.693 41.5595 135.346 42.4217V52.8751H142.69V44.3446C147.177 45.6559 151.619 47.1886 156.015 48.9409L158.74 42.1183V42.12C153.493 40.0332 148.135 38.2383 142.69 36.7448V27.1719H135.346V34.9042C131.693 34.0846 128.021 33.3765 124.331 32.8339V23.5002H116.987V31.9455C113.315 31.5783 109.643 31.398 105.971 31.3062V23.5H98.6277V31.2882C94.9558 31.38 91.2839 31.5701 87.612 31.9274V23.5002H80.2683V32.8339C76.5964 33.3781 72.9245 34.0863 69.2526 34.9042V27.1719H61.9089V36.7448C56.4632 38.2381 51.1064 40.0331 45.8592 42.12L48.5834 48.9426Z"/></svg>
